X:1
T:Title
L:1/8
Q:1/4=130
M:4/4
K:F
V:1 treble nm="Church Organ, Staff"
V:1
 D4 A3 B | c2 c2 A2 A2 | A4 A4 | A2 B2 c2 c2 | A2 G2 E4 | c4 A2 A2 | A3 G F2 E2 | D4 B4 | %8
w: By~O.~Gibbons * *||||||||
 c2 B2 A2 _A2 | Ac c2 A4 | B4 c2 G2 | G2 F2 c3 B | A4 c4 | d2 cB A2 B2 | A3 G F4 |] %15
w: |||||||

